styles/1/Numix/32/places/brown-folder-documents.svg

<?xml version="1.0" encoding="UTF-8" standalone="no"?>
<!-- Created with Inkscape (http://www.inkscape.org/) -->

<svg
   xmlns:dc="http://purl.org/dc/elements/1.1/"
   xmlns:cc="http://creativecommons.org/ns#"
   xmlns:rdf="http://www.w3.org/1999/02/22-rdf-syntax-ns#"
   xmlns:svg="http://www.w3.org/2000/svg"
   xmlns="http://www.w3.org/2000/svg"
   xmlns:sodipodi="http://sodipodi.sourceforge.net/DTD/sodipodi-0.dtd"
   xmlns:inkscape="http://www.inkscape.org/namespaces/inkscape"
   width="32"
   height="32"
   id="svg2"
   version="1.1"
   inkscape:version="0.91 r"
   sodipodi:docname="brown-folder-documents.svg"
   inkscape:export-filename="/media/Data/Main/Visuals/Icons/Numix/Desktop/repos/numix-wiki/Gjorgi/Numix-folders/48/New/folder-144.png"
   inkscape:export-xdpi="270"
   inkscape:export-ydpi="270">
  <defs
     id="defs4" />
  <sodipodi:namedview
     id="base"
     pagecolor="#ffffff"
     bordercolor="#666666"
     borderopacity="1.0"
     inkscape:pageopacity="0.0"
     inkscape:pageshadow="2"
     inkscape:zoom="9.4732285"
     inkscape:cx="6.3513535"
     inkscape:cy="19.732563"
     inkscape:document-units="px"
     inkscape:current-layer="layer1"
     showgrid="true"
     inkscape:window-width="1280"
     inkscape:window-height="998"
     inkscape:window-x="0"
     inkscape:window-y="0"
     inkscape:window-maximized="1"
     showguides="true"
     inkscape:guide-bbox="true">
    <inkscape:grid
       type="xygrid"
       id="grid2985"
       empspacing="5"
       visible="true"
       enabled="true"
       snapvisiblegridlinesonly="true" />
  </sodipodi:namedview>
  <metadata
     id="metadata7">
    <rdf:RDF>
      <cc:Work
         rdf:about="">
        <dc:format>image/svg+xml</dc:format>
        <dc:type
           rdf:resource="http://purl.org/dc/dcmitype/StillImage" />
        <dc:title />
      </cc:Work>
    </rdf:RDF>
  </metadata>
  <g
     inkscape:label="Layer 1"
     inkscape:groupmode="layer"
     id="layer1"
     transform="translate(0,-1020.3622)">
    <path
       style="font-size:medium;font-style:normal;font-variant:normal;font-weight:normal;font-stretch:normal;text-indent:0;text-align:start;text-decoration:none;line-height:normal;letter-spacing:normal;word-spacing:normal;text-transform:none;direction:ltr;block-progression:tb;writing-mode:lr-tb;text-anchor:start;baseline-shift:baseline;color:#000000;fill:#8d6e63;fill-opacity:1;fill-rule:nonzero;stroke:none;stroke-width:2.28612947;marker:none;visibility:visible;display:inline;overflow:visible;enable-background:accumulate;font-family:Sans;-inkscape-font-specification:Sans"
       d="M 2.03125 4 C 1.4665378 4.056 0.99079304 4.58885 1 5.15625 L 1 26.84375 C 0.99302 27.45105 1.5489584 28.007 2.15625 28 L 29.84375 28 C 30.451042 28.01 31.006984 27.45105 31 26.84375 L 31 7.15625 C 31.007 6.54895 30.451042 5.993 29.84375 6 L 19 6 L 19 5.15625 C 19.0069 4.55935 18.471863 4.0095 17.875 4 L 2.15625 4 L 2.03125 4 z M 12 10 L 17 10 L 22 15 L 22 22 C 22 23.108 21.108 24 20 24 L 12 24 C 10.892 24 10 23.108 10 22 L 10 12 C 10 10.892 10.892 10 12 10 z M 12 12 L 12 22 L 20 22 L 20 15 L 17 15 L 17 12 L 12 12 z M 13.25 16 L 16.75 16 C 16.8885 16 17 16.1115 17 16.25 L 17 16.75 C 17 16.8885 16.8885 17 16.75 17 L 13.25 17 C 13.1115 17 13 16.8885 13 16.75 L 13 16.25 C 13 16.1115 13.1115 16 13.25 16 z M 13.25 18 L 18.75 18 C 18.8885 18 19 18.1115 19 18.25 L 19 18.75 C 19 18.8885 18.8885 19 18.75 19 L 13.25 19 C 13.1115 19 13 18.8885 13 18.75 L 13 18.25 C 13 18.1115 13.1115 18 13.25 18 z M 13.25 20 L 18.75 20 C 18.8885 20 19 20.1115 19 20.25 L 19 20.75 C 19 20.8885 18.8885 21 18.75 21 L 13.25 21 C 13.1115 21 13 20.8885 13 20.75 L 13 20.25 C 13 20.1115 13.1115 20 13.25 20 z "
       transform="translate(0,1020.3622)"
       id="path3912" />
  </g>
</svg>

<!-- Created with Inkscape (http://www.inkscape.org/) -->
<svg xmlns="http://www.w3.org/2000/svg" viewBox="0 0 32 32">
 <g transform="translate(0,-1020.3622)">
  <path d="m 2.031 4 c -0.565 0.056 -1.04 0.589 -1.031 1.156 l 0 21.688 c -0.007 0.607 0.549 1.163 1.156 1.156 l 27.688 0 c 0.607 0.01 1.163 -0.549 1.156 -1.156 l 0 -19.688 c 0.007 -0.607 -0.549 -1.163 -1.156 -1.156 l -10.844 0 l 0 -0.844 c 0.007 -0.597 -0.528 -1.147 -1.125 -1.156 l -15.719 0 l -0.125 0 z m 9.969 6 l 5 0 l 5 5 l 0 7 c 0 1.108 -0.892 2 -2 2 l -8 0 c -1.108 0 -2 -0.892 -2 -2 l 0 -10 c 0 -1.108 0.892 -2 2 -2 z m 0 2 l 0 10 l 8 0 l 0 -7 l -3 0 l 0 -3 l -5 0 z m 1.25 4 l 3.5 0 c 0.139 0 0.25 0.111 0.25 0.25 l 0 0.5 c 0 0.139 -0.111 0.25 -0.25 0.25 l -3.5 0 c -0.139 0 -0.25 -0.111 -0.25 -0.25 l 0 -0.5 c 0 -0.139 0.111 -0.25 0.25 -0.25 z m 0 2 l 5.5 0 c 0.139 0 0.25 0.111 0.25 0.25 l 0 0.5 c 0 0.139 -0.111 0.25 -0.25 0.25 l -5.5 0 c -0.139 0 -0.25 -0.111 -0.25 -0.25 l 0 -0.5 c 0 -0.139 0.111 -0.25 0.25 -0.25 z m 0 2 l 5.5 0 c 0.139 0 0.25 0.111 0.25 0.25 l 0 0.5 c 0 0.139 -0.111 0.25 -0.25 0.25 l -5.5 0 c -0.139 0 -0.25 -0.111 -0.25 -0.25 l 0 -0.5 c 0 -0.139 0.111 -0.25 0.25 -0.25 z" transform="translate(0,1020.3622)" style="visibility:visible;fill:#8d6e63;fill-opacity:1;stroke:none;display:inline;color:#000;fill-rule:nonzero"/>
 </g>
</svg>
